packages/core/src/svgs/vela.svg

<svg width="24" height="24" viewBox="0 0 24 24" fill="none" xmlns="http://www.w3.org/2000/svg">
<g clip-path="url(#clip0_31_20349)">
<path d="M0 0H24V24H0V0Z" fill="#F0F3FA"/>
<path d="M17.3571 11.1941L15.2143 14.9484C14.55 16.1056 13.3286 16.7141 12 16.7141L15.2143 11.1984L16.2857 9.32129L17.3571 11.1941Z" fill="url(#paint0_linear_31_20349)"/>
<path d="M17.3572 11.1941L15.2143 14.9484C14.5501 16.1056 13.3501 16.6884 12.0215 16.6884L15.2143 11.1984L16.2858 9.32129L17.3572 11.1941Z" fill="url(#paint1_linear_31_20349)"/>
<path d="M20.5714 9.42871L19.5 11.1987L18.4286 13.0716L17.3571 14.9487C16.6929 16.1059 15.4714 16.7144 14.1429 16.7144H12C13.3286 16.7144 14.5243 16.0844 15.1886 14.9273L17.3571 11.1987L16.2857 9.42871H20.5714Z" fill="url(#paint2_linear_31_20349)"/>
<path d="M16.3458 9.4285H7.71436L8.40007 8.06993L8.79007 7.28564H13.1144C14.4344 7.28564 15.6558 8.08707 16.3286 9.38564L16.3501 9.4285H16.3458Z" fill="url(#paint3_linear_31_20349)"/>
<path d="M16.3458 9.4285H7.71436L8.85436 7.28564H13.2129C14.5329 7.28564 15.6729 8.2885 16.3415 9.4285H16.3458Z" fill="url(#paint4_linear_31_20349)"/>
<path d="M16.2641 9.287C15.5999 8.147 14.4341 7.28557 13.1184 7.28557H8.83272L7.74415 9.42843L5.57129 5.57129H11.9999C12.612 5.57269 13.2143 5.72583 13.7527 6.017C13.9284 6.11129 14.0956 6.22272 14.2541 6.34272L14.3527 6.41986C14.4446 6.49757 14.5333 6.57907 14.6184 6.66415C14.8456 6.89557 15.047 7.157 15.2141 7.44843L16.2641 9.287Z" fill="url(#paint5_linear_31_20349)"/>
<path d="M11.9999 16.714H9.85708L7.71423 13.0712C7.39742 12.5096 7.23239 11.8751 7.23539 11.2303C7.2384 10.5856 7.40934 9.95267 7.73137 9.39404L8.10423 10.0069L8.78566 11.1983L9.85708 13.0712L11.9999 16.714Z" fill="url(#paint6_linear_31_20349)"/>
<path d="M12.0001 16.7185V16.7142H9.85723L7.71437 13.0714C7.3984 12.514 7.2341 11.8835 7.23786 11.2428C7.24162 10.6021 7.41331 9.97356 7.7358 9.41992L12.0001 16.7185Z" fill="url(#paint7_linear_31_20349)"/>
<path d="M12.0169 16.7142L9.85695 20.5714L8.78552 18.6985L8.12981 17.5499L7.71409 16.8214L6.64266 14.9485C6.51958 14.7331 6.41767 14.5064 6.33838 14.2714L6.30838 14.1685C6.24704 13.9637 6.2012 13.7545 6.17123 13.5428L6.16266 13.4356L6.15409 13.3242V13.3114L6.14552 13.1956V13.0799C6.14425 12.5878 6.23887 12.1001 6.42409 11.6442L6.47123 11.5328C6.523 11.4187 6.58021 11.3071 6.64266 11.1985L7.72266 9.41992C7.40237 9.97492 7.2334 10.6043 7.23264 11.2451C7.23189 11.8859 7.39939 12.5156 7.71838 13.0714L9.86123 16.7142H12.0169Z" fill="url(#paint8_linear_31_20349)"/>
</g>
<defs>
<linearGradient id="paint0_linear_31_20349" x1="19.7614" y1="8.72558" x2="11.4129" y2="15.9513" gradientUnits="userSpaceOnUse">
<stop stop-color="#02F0FE"/>
<stop offset="1" stop-color="#4D7EFE"/>
</linearGradient>
<linearGradient id="paint1_linear_31_20349" x1="16.7743" y1="10.5684" x2="12.5143" y2="16.9713" gradientUnits="userSpaceOnUse">
<stop stop-color="#4D4AFE"/>
<stop offset="1" stop-color="#4D7EFE" stop-opacity="0"/>
</linearGradient>
<linearGradient id="paint2_linear_31_20349" x1="20.2286" y1="9.26157" x2="11.8757" y2="16.4873" gradientUnits="userSpaceOnUse">
<stop stop-color="#02F0FE"/>
<stop offset="1" stop-color="#4D7EFE"/>
</linearGradient>
<linearGradient id="paint3_linear_31_20349" x1="5.64864" y1="6.44564" x2="16.1186" y2="9.45422" gradientUnits="userSpaceOnUse">
<stop stop-color="#02F0FE"/>
<stop offset="1" stop-color="#4D7EFE"/>
</linearGradient>
<linearGradient id="paint4_linear_31_20349" x1="7.57721" y1="8.39993" x2="16.0801" y2="8.37422" gradientUnits="userSpaceOnUse">
<stop stop-color="#4D4AFE"/>
<stop offset="1" stop-color="#4D7EFE" stop-opacity="0"/>
</linearGradient>
<linearGradient id="paint5_linear_31_20349" x1="5.88415" y1="6.02557" x2="16.0584" y2="9.34272" gradientUnits="userSpaceOnUse">
<stop stop-color="#02F0FE"/>
<stop offset="1" stop-color="#4D7EFE"/>
</linearGradient>
<linearGradient id="paint6_linear_31_20349" x1="10.8771" y1="20.3526" x2="8.52851" y2="9.22261" gradientUnits="userSpaceOnUse">
<stop stop-color="#02F0FE"/>
<stop offset="1" stop-color="#4D7EFE"/>
</linearGradient>
<linearGradient id="paint7_linear_31_20349" x1="11.2501" y1="17.3914" x2="6.90437" y2="9.92564" gradientUnits="userSpaceOnUse">
<stop stop-color="#4D4AFE"/>
<stop offset="1" stop-color="#4D7EFE" stop-opacity="0"/>
</linearGradient>
<linearGradient id="paint8_linear_31_20349" x1="10.1784" y1="20.5028" x2="7.82981" y2="9.37278" gradientUnits="userSpaceOnUse">
<stop stop-color="#02F0FE"/>
<stop offset="1" stop-color="#4D7EFE"/>
</linearGradient>
<clipPath id="clip0_31_20349">
<rect width="24" height="24" fill="white"/>
</clipPath>
</defs>
</svg>

<svg xmlns="http://www.w3.org/2000/svg" width="24" height="24" fill="none" viewBox="0 0 24 24"><g clip-path="url(#a)"><path fill="#F0F3FA" d="M0 0h24v24H0z"/><path fill="url(#b)" d="m17.357 11.194-2.143 3.754c-.664 1.158-1.885 1.766-3.214 1.766l3.214-5.516 1.072-1.877z"/><path fill="url(#c)" d="m17.357 11.194-2.143 3.754c-.664 1.158-1.864 1.74-3.193 1.74l3.193-5.49 1.072-1.877z"/><path fill="url(#d)" d="m20.571 9.429-1.071 1.77-1.071 1.873-1.072 1.877c-.664 1.157-1.886 1.765-3.214 1.765H12c1.329 0 2.524-.63 3.189-1.787l2.168-3.728-1.071-1.77z"/><path fill="url(#e)" d="M16.346 9.429H7.714l.686-1.36.39-.783h4.324c1.32 0 2.542.801 3.215 2.1l.021.043z"/><path fill="url(#f)" d="M16.346 9.429H7.714l1.14-2.143h4.359c1.32 0 2.46 1.003 3.129 2.143z"/><path fill="url(#g)" d="M16.264 9.287c-.664-1.14-1.83-2.001-3.146-2.001H8.833L7.744 9.428 5.571 5.571H12a3.7 3.7 0 0 1 2.254.772l.099.077q.138.118.265.244.344.348.596.784z"/><path fill="url(#h)" d="M12 16.714H9.857l-2.143-3.643a3.71 3.71 0 0 1 .017-3.677l.373.613.682 1.191 1.071 1.873z"/><path fill="url(#i)" d="M12 16.719v-.005H9.857l-2.143-3.643a3.66 3.66 0 0 1 .022-3.651z"/><path fill="url(#j)" d="m12.017 16.714-2.16 3.857-1.071-1.873-.656-1.148-.416-.729-1.071-1.873a4 4 0 0 1-.305-.677l-.03-.103a4 4 0 0 1-.137-.625l-.008-.107-.009-.112v-.013l-.008-.115v-.116c-.002-.492.093-.98.278-1.436l.047-.111q.079-.171.172-.335l1.08-1.778a3.66 3.66 0 0 0-.005 3.651l2.143 3.643z"/></g><defs><linearGradient id="b" x1="19.761" x2="11.413" y1="8.726" y2="15.951" gradientUnits="userSpaceOnUse"><stop stop-color="#02F0FE"/><stop offset="1" stop-color="#4D7EFE"/></linearGradient><linearGradient id="c" x1="16.774" x2="12.514" y1="10.568" y2="16.971" gradientUnits="userSpaceOnUse"><stop stop-color="#4D4AFE"/><stop offset="1" stop-color="#4D7EFE" stop-opacity="0"/></linearGradient><linearGradient id="d" x1="20.229" x2="11.876" y1="9.262" y2="16.487" gradientUnits="userSpaceOnUse"><stop stop-color="#02F0FE"/><stop offset="1" stop-color="#4D7EFE"/></linearGradient><linearGradient id="e" x1="5.649" x2="16.119" y1="6.446" y2="9.454" gradientUnits="userSpaceOnUse"><stop stop-color="#02F0FE"/><stop offset="1" stop-color="#4D7EFE"/></linearGradient><linearGradient id="f" x1="7.577" x2="16.08" y1="8.4" y2="8.374" gradientUnits="userSpaceOnUse"><stop stop-color="#4D4AFE"/><stop offset="1" stop-color="#4D7EFE" stop-opacity="0"/></linearGradient><linearGradient id="g" x1="5.884" x2="16.058" y1="6.026" y2="9.343" gradientUnits="userSpaceOnUse"><stop stop-color="#02F0FE"/><stop offset="1" stop-color="#4D7EFE"/></linearGradient><linearGradient id="h" x1="10.877" x2="8.529" y1="20.353" y2="9.223" gradientUnits="userSpaceOnUse"><stop stop-color="#02F0FE"/><stop offset="1" stop-color="#4D7EFE"/></linearGradient><linearGradient id="i" x1="11.25" x2="6.904" y1="17.391" y2="9.926" gradientUnits="userSpaceOnUse"><stop stop-color="#4D4AFE"/><stop offset="1" stop-color="#4D7EFE" stop-opacity="0"/></linearGradient><linearGradient id="j" x1="10.178" x2="7.83" y1="20.503" y2="9.373" gradientUnits="userSpaceOnUse"><stop stop-color="#02F0FE"/><stop offset="1" stop-color="#4D7EFE"/></linearGradient><clipPath id="a"><path fill="#fff" d="M0 0h24v24H0z"/></clipPath></defs></svg>
